48x48/apps/pgadmin.svg

<svg viewBox="0 0 48 48"><defs><linearGradient id="linearGradient3764" x1="1" x2="47" gradientUnits="userSpaceOnUse" gradientTransform="matrix(0,-1,1,0,-1.5e-6,47.999998)"><stop stop-color="#e4e4e4" stop-opacity="1"/><stop offset="1" stop-color="#eee" stop-opacity="1"/></linearGradient><clipPath id="clipPath-530784810"><g transform="translate(0,-1004.3622)"><path d="m -24 13 c 0 1.105 -0.672 2 -1.5 2 -0.828 0 -1.5 -0.895 -1.5 -2 0 -1.105 0.672 -2 1.5 -2 0.828 0 1.5 0.895 1.5 2 z" transform="matrix(15.333333,0,0,11.5,414.99999,878.8622)" fill="#1890d0"/></g></clipPath><clipPath id="clipPath-538646568"><g transform="translate(0,-1004.3622)"><path d="m -24 13 c 0 1.105 -0.672 2 -1.5 2 -0.828 0 -1.5 -0.895 -1.5 -2 0 -1.105 0.672 -2 1.5 -2 0.828 0 1.5 0.895 1.5 2 z" transform="matrix(15.333333,0,0,11.5,414.99999,878.8622)" fill="#1890d0"/></g></clipPath></defs><g><path d="m 36.31 5 c 5.859 4.062 9.688 10.831 9.688 18.5 c 0 12.426 -10.07 22.5 -22.5 22.5 c -7.669 0 -14.438 -3.828 -18.5 -9.688 c 1.037 1.822 2.306 3.499 3.781 4.969 c 4.085 3.712 9.514 5.969 15.469 5.969 c 12.703 0 23 -10.298 23 -23 c 0 -5.954 -2.256 -11.384 -5.969 -15.469 c -1.469 -1.475 -3.147 -2.744 -4.969 -3.781 z m 4.969 3.781 c 3.854 4.113 6.219 9.637 6.219 15.719 c 0 12.703 -10.297 23 -23 23 c -6.081 0 -11.606 -2.364 -15.719 -6.219 c 4.16 4.144 9.883 6.719 16.219 6.719 c 12.703 0 23 -10.298 23 -23 c 0 -6.335 -2.575 -12.06 -6.719 -16.219 z" opacity="0.05"/><path d="m 41.28 8.781 c 3.712 4.085 5.969 9.514 5.969 15.469 c 0 12.703 -10.297 23 -23 23 c -5.954 0 -11.384 -2.256 -15.469 -5.969 c 4.113 3.854 9.637 6.219 15.719 6.219 c 12.703 0 23 -10.298 23 -23 c 0 -6.081 -2.364 -11.606 -6.219 -15.719 z" opacity="0.1"/><path d="m 31.25 2.375 c 8.615 3.154 14.75 11.417 14.75 21.13 c 0 12.426 -10.07 22.5 -22.5 22.5 c -9.708 0 -17.971 -6.135 -21.12 -14.75 a 23 23 0 0 0 44.875 -7 a 23 23 0 0 0 -16 -21.875 z" opacity="0.2"/></g><g><path d="m 24 1 c 12.703 0 23 10.297 23 23 c 0 12.703 -10.297 23 -23 23 -12.703 0 -23 -10.297 -23 -23 0 -12.703 10.297 -23 23 -23 z" fill="url(#linearGradient3764)" fill-opacity="1"/></g><g/><g><g clip-path="url(#clipPath-530784810)"><g transform="translate(1,1)"><g opacity="0.1"><!-- color: #eeeeee --><g><path d="m 36.04 27.02 c -3.254 0.645 -3.477 -0.418 -3.477 -0.418 c 3.434 -4.906 4.867 -11.137 3.629 -12.664 c -3.379 -4.156 -9.227 -2.191 -9.328 -2.137 l -0.031 0.004 c -0.641 -0.125 -1.359 -0.203 -2.168 -0.215 c -1.469 -0.023 -2.586 0.371 -3.434 0.992 c 0 0 -10.43 -4.141 -9.949 5.207 c 0.102 1.988 2.957 15.05 6.363 11.11 c 1.246 -1.441 2.449 -2.66 2.449 -2.66 c 0.598 0.383 1.313 0.578 2.063 0.508 l 0.055 -0.047 c -0.016 0.18 -0.008 0.355 0.027 0.563 c -0.879 0.945 -0.621 1.109 -2.375 1.461 c -1.773 0.352 -0.734 0.98 -0.055 1.145 c 0.828 0.199 2.738 0.48 4.03 -1.258 l -0.055 0.199 c 0.344 0.266 0.586 1.723 0.547 3.051 c -0.039 1.324 -0.066 2.23 0.203 2.941 c 0.27 0.711 0.539 2.309 2.844 1.832 c 1.93 -0.395 2.926 -1.426 3.066 -3.148 c 0.098 -1.223 0.32 -1.043 0.336 -2.137 l 0.176 -0.516 c 0.207 -1.66 0.031 -2.195 1.219 -1.941 l 0.289 0.023 c 0.875 0.039 2.02 -0.137 2.688 -0.438 c 1.445 -0.645 2.305 -1.723 0.879 -1.441 m 0.012 -0.012" fill="#000" stroke="none" fill-rule="nonzero" fill-opacity="1"/><path d="m 6.769 7.893 c -0.025 0.87 0.007 1.745 0.095 1.96 c 0.088 0.213 0.278 0.624 0.929 0.493 c 0.542 -0.112 0.742 -0.332 0.827 -0.809 c 0.063 -0.353 0.185 -1.333 0.201 -1.535" transform="matrix(3.543307,0,0,3.543307,0,0)" stroke-opacity="1" fill="#000" stroke="#f9f9f9" stroke-linejoin="round" stroke-linecap="round" stroke-width="0.141" stroke-miterlimit="4"/><path d="m 5.99 3.53 c 0 0 -2.947 -1.16 -2.809 1.478 c 0.03 0.561 0.836 4.248 1.797 3.133 c 0.351 -0.408 0.668 -0.729 0.668 -0.729" transform="matrix(3.543307,0,0,3.543307,0,0)" stroke-opacity="1" fill="#000" stroke="#f9f9f9" stroke-linejoin="round" stroke-linecap="round" stroke-width="0.141" stroke-miterlimit="4"/><path d="m 7.581 3.318 c -0.105 0.031 1.637 -0.613 2.627 0.605 c 0.351 0.43 -0.055 2.186 -1.023 3.573" transform="matrix(3.543307,0,0,3.543307,0,0)" stroke-opacity="1" fill="#000" stroke="#f9f9f9" stroke-linejoin="round" stroke-linecap="round" stroke-width="0.141" stroke-miterlimit="4"/><path d="m 9.185 7.497 c 0 0 0.063 0.301 0.98 0.118 c 0.4 -0.078 0.161 0.226 -0.248 0.409 c -0.334 0.15 -1.087 0.185 -1.097 -0.021 c -0.033 -0.535 0.396 -0.372 0.365 -0.506 c -0.031 -0.119 -0.219 -0.237 -0.345 -0.53 c -0.11 -0.257 -1.51 -2.23 0.388 -1.937 c 0.067 -0.014 -0.495 -1.741 -2.272 -1.768 c -1.777 -0.028 -1.72 2.106 -1.72 2.106" transform="matrix(3.543307,0,0,3.543307,0,0)" stroke-opacity="1" fill="#000" stroke="#f9f9f9" stroke-linejoin="bevel" stroke-linecap="round" stroke-width="0.141" stroke-miterlimit="4"/><path d="m 6.272 7.68 c -0.248 0.269 -0.174 0.312 -0.67 0.411 c -0.501 0.099 -0.204 0.278 -0.012 0.323 c 0.233 0.056 0.772 0.137 1.136 -0.356 c 0.111 -0.15 -0.001 -0.388 -0.152 -0.449 c -0.075 -0.029 -0.172 -0.066 -0.299 0.071 m 0 0" transform="matrix(3.543307,0,0,3.543307,0,0)" stroke-opacity="1" fill="#000" stroke="#f9f9f9" stroke-linejoin="round" stroke-linecap="round" stroke-width="0.141" stroke-miterlimit="4"/><path d="m 6.256 7.675 c -0.025 -0.158 0.053 -0.343 0.137 -0.561 c 0.126 -0.327 0.418 -0.655 0.185 -1.693 c -0.174 -0.774 -1.339 -0.161 -1.342 -0.055 c 0 0.107 0.053 0.531 -0.02 1.031 c -0.094 0.648 0.429 1.197 1.031 1.141" transform="matrix(3.543307,0,0,3.543307,0,0)" stroke-opacity="1" fill="#000" stroke="#f9f9f9" stroke-linejoin="round" stroke-linecap="round" stroke-width="0.141" stroke-miterlimit="4"/><path d="m 5.978 5.348 c -0.008 0.036 0.065 0.131 0.162 0.144 c 0.096 0.013 0.176 -0.063 0.183 -0.098 c 0.006 -0.036 -0.067 -0.075 -0.163 -0.088 c -0.096 -0.013 -0.177 0.006 -0.182 0.042 m 0 0" transform="matrix(3.543307,0,0,3.543307,0,0)" stroke-opacity="1" fill="#000" fill-rule="nonzero" stroke="#f9f9f9" stroke-linejoin="miter" fill-opacity="1" stroke-linecap="butt" stroke-width="0.141" stroke-miterlimit="4"/><path d="m 8.887 5.275 c 0.008 0.036 -0.066 0.131 -0.163 0.144 c -0.097 0.01 -0.175 -0.065 -0.183 -0.098 c -0.006 -0.036 0.067 -0.075 0.163 -0.088 c 0.096 -0.013 0.177 0.006 0.182 0.042 m 0.001 0" transform="matrix(3.543307,0,0,3.543307,0,0)" stroke-opacity="1" fill="#000" fill-rule="nonzero" stroke="#f9f9f9" stroke-linejoin="miter" fill-opacity="1" stroke-linecap="butt" stroke-width="0.071" stroke-miterlimit="4"/><path d="m 9.228 5.03 c 0.013 0.281 -0.064 0.473 -0.075 0.772 c -0.013 0.434 0.215 0.933 -0.129 1.431" transform="matrix(3.543307,0,0,3.543307,0,0)" stroke-opacity="1" fill="#000" stroke="#f9f9f9" stroke-linejoin="round" stroke-linecap="round" stroke-width="0.141" stroke-miterlimit="4"/></g></g></g></g></g><g><g clip-path="url(#clipPath-538646568)"><!-- color: #eeeeee --><g><path d="m 36.04 27.02 c -3.254 0.645 -3.477 -0.418 -3.477 -0.418 c 3.434 -4.906 4.867 -11.137 3.629 -12.664 c -3.379 -4.156 -9.227 -2.191 -9.328 -2.137 l -0.031 0.004 c -0.641 -0.125 -1.359 -0.203 -2.168 -0.215 c -1.469 -0.023 -2.586 0.371 -3.434 0.992 c 0 0 -10.43 -4.141 -9.949 5.207 c 0.102 1.988 2.957 15.05 6.363 11.11 c 1.246 -1.441 2.449 -2.66 2.449 -2.66 c 0.598 0.383 1.313 0.578 2.063 0.508 l 0.055 -0.047 c -0.016 0.18 -0.008 0.355 0.027 0.563 c -0.879 0.945 -0.621 1.109 -2.375 1.461 c -1.773 0.352 -0.734 0.98 -0.055 1.145 c 0.828 0.199 2.738 0.48 4.03 -1.258 l -0.055 0.199 c 0.344 0.266 0.586 1.723 0.547 3.051 c -0.039 1.324 -0.066 2.23 0.203 2.941 c 0.27 0.711 0.539 2.309 2.844 1.832 c 1.93 -0.395 2.926 -1.426 3.066 -3.148 c 0.098 -1.223 0.32 -1.043 0.336 -2.137 l 0.176 -0.516 c 0.207 -1.66 0.031 -2.195 1.219 -1.941 l 0.289 0.023 c 0.875 0.039 2.02 -0.137 2.688 -0.438 c 1.445 -0.645 2.305 -1.723 0.879 -1.441 m 0.012 -0.012" fill="#33678e" stroke="none" fill-rule="nonzero" fill-opacity="1"/><path d="m 6.769 7.893 c -0.025 0.87 0.007 1.745 0.095 1.96 c 0.088 0.213 0.278 0.624 0.929 0.493 c 0.542 -0.112 0.742 -0.332 0.827 -0.809 c 0.063 -0.353 0.185 -1.333 0.201 -1.535" transform="matrix(3.543307,0,0,3.543307,0,0)" stroke-opacity="1" fill="none" stroke="#f9f9f9" stroke-linejoin="round" stroke-linecap="round" stroke-width="0.141" stroke-miterlimit="4"/><path d="m 5.99 3.53 c 0 0 -2.947 -1.16 -2.809 1.478 c 0.03 0.561 0.836 4.248 1.797 3.133 c 0.351 -0.408 0.668 -0.729 0.668 -0.729" transform="matrix(3.543307,0,0,3.543307,0,0)" stroke-opacity="1" fill="none" stroke="#f9f9f9" stroke-linejoin="round" stroke-linecap="round" stroke-width="0.141" stroke-miterlimit="4"/><path d="m 7.581 3.318 c -0.105 0.031 1.637 -0.613 2.627 0.605 c 0.351 0.43 -0.055 2.186 -1.023 3.573" transform="matrix(3.543307,0,0,3.543307,0,0)" stroke-opacity="1" fill="none" stroke="#f9f9f9" stroke-linejoin="round" stroke-linecap="round" stroke-width="0.141" stroke-miterlimit="4"/><path d="m 9.185 7.497 c 0 0 0.063 0.301 0.98 0.118 c 0.4 -0.078 0.161 0.226 -0.248 0.409 c -0.334 0.15 -1.087 0.185 -1.097 -0.021 c -0.033 -0.535 0.396 -0.372 0.365 -0.506 c -0.031 -0.119 -0.219 -0.237 -0.345 -0.53 c -0.11 -0.257 -1.51 -2.23 0.388 -1.937 c 0.067 -0.014 -0.495 -1.741 -2.272 -1.768 c -1.777 -0.028 -1.72 2.106 -1.72 2.106" transform="matrix(3.543307,0,0,3.543307,0,0)" stroke-opacity="1" fill="none" stroke="#f9f9f9" stroke-linejoin="bevel" stroke-linecap="round" stroke-width="0.141" stroke-miterlimit="4"/><path d="m 6.272 7.68 c -0.248 0.269 -0.174 0.312 -0.67 0.411 c -0.501 0.099 -0.204 0.278 -0.012 0.323 c 0.233 0.056 0.772 0.137 1.136 -0.356 c 0.111 -0.15 -0.001 -0.388 -0.152 -0.449 c -0.075 -0.029 -0.172 -0.066 -0.299 0.071 m 0 0" transform="matrix(3.543307,0,0,3.543307,0,0)" stroke-opacity="1" fill="none" stroke="#f9f9f9" stroke-linejoin="round" stroke-linecap="round" stroke-width="0.141" stroke-miterlimit="4"/><path d="m 6.256 7.675 c -0.025 -0.158 0.053 -0.343 0.137 -0.561 c 0.126 -0.327 0.418 -0.655 0.185 -1.693 c -0.174 -0.774 -1.339 -0.161 -1.342 -0.055 c 0 0.107 0.053 0.531 -0.02 1.031 c -0.094 0.648 0.429 1.197 1.031 1.141" transform="matrix(3.543307,0,0,3.543307,0,0)" stroke-opacity="1" fill="none" stroke="#f9f9f9" stroke-linejoin="round" stroke-linecap="round" stroke-width="0.141" stroke-miterlimit="4"/><path d="m 5.978 5.348 c -0.008 0.036 0.065 0.131 0.162 0.144 c 0.096 0.013 0.176 -0.063 0.183 -0.098 c 0.006 -0.036 -0.067 -0.075 -0.163 -0.088 c -0.096 -0.013 -0.177 0.006 -0.182 0.042 m 0 0" transform="matrix(3.543307,0,0,3.543307,0,0)" stroke-opacity="1" fill="#fff" fill-rule="nonzero" stroke="#f9f9f9" stroke-linejoin="miter" fill-opacity="1" stroke-linecap="butt" stroke-width="0.141" stroke-miterlimit="4"/><path d="m 8.887 5.275 c 0.008 0.036 -0.066 0.131 -0.163 0.144 c -0.097 0.01 -0.175 -0.065 -0.183 -0.098 c -0.006 -0.036 0.067 -0.075 0.163 -0.088 c 0.096 -0.013 0.177 0.006 0.182 0.042 m 0.001 0" transform="matrix(3.543307,0,0,3.543307,0,0)" stroke-opacity="1" fill="#fff" fill-rule="nonzero" stroke="#f9f9f9" stroke-linejoin="miter" fill-opacity="1" stroke-linecap="butt" stroke-width="0.071" stroke-miterlimit="4"/><path d="m 9.228 5.03 c 0.013 0.281 -0.064 0.473 -0.075 0.772 c -0.013 0.434 0.215 0.933 -0.129 1.431" transform="matrix(3.543307,0,0,3.543307,0,0)" stroke-opacity="1" fill="none" stroke="#f9f9f9" stroke-linejoin="round" stroke-linecap="round" stroke-width="0.141" stroke-miterlimit="4"/></g></g></g><g><path d="m 40.03 7.531 c 3.712 4.084 5.969 9.514 5.969 15.469 0 12.703 -10.297 23 -23 23 c -5.954 0 -11.384 -2.256 -15.469 -5.969 4.178 4.291 10.01 6.969 16.469 6.969 c 12.703 0 23 -10.298 23 -23 0 -6.462 -2.677 -12.291 -6.969 -16.469 z" opacity="0.1"/></g></svg>

<?xml version="1.0" encoding="UTF-8" standalone="no"?>
<svg
   xmlns:dc="http://purl.org/dc/elements/1.1/"
   xmlns:cc="http://creativecommons.org/ns#"
   xmlns:rdf="http://www.w3.org/1999/02/22-rdf-syntax-ns#"
   xmlns:svg="http://www.w3.org/2000/svg"
   xmlns="http://www.w3.org/2000/svg"
   xmlns:sodipodi="http://sodipodi.sourceforge.net/DTD/sodipodi-0.dtd"
   xmlns:inkscape="http://www.inkscape.org/namespaces/inkscape"
   viewBox="0 0 48 48"
   id="svg2"
   version="1.1"
   inkscape:version="0.48.4 r9939"
   width="100%"
   height="100%"
   sodipodi:docname="pgadmin.svg">
  <metadata
     id="metadata97">
    <rdf:RDF>
      <cc:Work
         rdf:about="">
        <dc:format>image/svg+xml</dc:format>
        <dc:type
           rdf:resource="http://purl.org/dc/dcmitype/StillImage" />
      </cc:Work>
    </rdf:RDF>
  </metadata>
  <sodipodi:namedview
     pagecolor="#ffffff"
     bordercolor="#666666"
     borderopacity="1"
     objecttolerance="10"
     gridtolerance="10"
     guidetolerance="10"
     inkscape:pageopacity="0"
     inkscape:pageshadow="2"
     inkscape:window-width="1375"
     inkscape:window-height="876"
     id="namedview95"
     showgrid="false"
     inkscape:zoom="4.9166667"
     inkscape:cx="-0.20338983"
     inkscape:cy="24"
     inkscape:window-x="65"
     inkscape:window-y="24"
     inkscape:window-maximized="1"
     inkscape:current-layer="svg2" />
  <defs
     id="defs4">
    <linearGradient
       id="linearGradient3764"
       x1="1"
       x2="47"
       gradientUnits="userSpaceOnUse"
       gradientTransform="matrix(0,-1,1,0,-1.5e-6,47.999998)">
      <stop
         stop-color="#e4e4e4"
         stop-opacity="1"
         id="stop7" />
      <stop
         offset="1"
         stop-color="#eee"
         stop-opacity="1"
         id="stop9" />
    </linearGradient>
    <clipPath
       id="clipPath-530784810">
      <g
         transform="translate(0,-1004.3622)"
         id="g12">
        <path
           d="m -24 13 c 0 1.105 -0.672 2 -1.5 2 -0.828 0 -1.5 -0.895 -1.5 -2 0 -1.105 0.672 -2 1.5 -2 0.828 0 1.5 0.895 1.5 2 z"
           transform="matrix(15.333333,0,0,11.5,414.99999,878.8622)"
           fill="#1890d0"
           id="path14" />
      </g>
    </clipPath>
    <clipPath
       id="clipPath-538646568">
      <g
         transform="translate(0,-1004.3622)"
         id="g17">
        <path
           d="m -24 13 c 0 1.105 -0.672 2 -1.5 2 -0.828 0 -1.5 -0.895 -1.5 -2 0 -1.105 0.672 -2 1.5 -2 0.828 0 1.5 0.895 1.5 2 z"
           transform="matrix(15.333333,0,0,11.5,414.99999,878.8622)"
           fill="#1890d0"
           id="path19" />
      </g>
    </clipPath>
    <linearGradient
       id="linearGradient3764-0"
       x1="1"
       x2="47"
       gradientUnits="userSpaceOnUse"
       gradientTransform="matrix(0,-1,1,0,-1.5e-6,47.999998)">
      <stop
         stop-color="#b5945b"
         stop-opacity="1"
         id="stop7-3" />
      <stop
         offset="1"
         stop-color="#bb9e69"
         stop-opacity="1"
         id="stop9-6" />
    </linearGradient>
    <clipPath
       id="clipPath-899834956">
      <g
         transform="translate(0,-1004.3622)"
         id="g12-8">
        <path
           d="m -24 13 c 0 1.105 -0.672 2 -1.5 2 -0.828 0 -1.5 -0.895 -1.5 -2 0 -1.105 0.672 -2 1.5 -2 0.828 0 1.5 0.895 1.5 2 z"
           transform="matrix(15.333333,0,0,11.5,414.99999,878.8622)"
           fill="#1890d0"
           id="path14-3" />
      </g>
    </clipPath>
    <clipPath
       id="clipPath-909443126">
      <g
         transform="translate(0,-1004.3622)"
         id="g17-3">
        <path
           d="m -24 13 c 0 1.105 -0.672 2 -1.5 2 -0.828 0 -1.5 -0.895 -1.5 -2 0 -1.105 0.672 -2 1.5 -2 0.828 0 1.5 0.895 1.5 2 z"
           transform="matrix(15.333333,0,0,11.5,414.99999,878.8622)"
           fill="#1890d0"
           id="path19-5" />
      </g>
    </clipPath>
    <clipPath
       id="clipPath-909443126-7">
      <g
         transform="translate(0,-1004.3622)"
         id="g17-2">
        <path
           style="fill:#1890d0"
           inkscape:connector-curvature="0"
           d="m -24,13 c 0,1.105 -0.672,2 -1.5,2 -0.828,0 -1.5,-0.895 -1.5,-2 0,-1.105 0.672,-2 1.5,-2 0.828,0 1.5,0.895 1.5,2 z"
           transform="matrix(15.333333,0,0,11.5,414.99999,878.8622)"
           id="path19-3" />
      </g>
    </clipPath>
    <linearGradient
       id="linearGradient3759">
      <stop
         id="stop3761"
         offset="0"
         style="stop-color:#a75e15;stop-opacity:1;" />
      <stop
         id="stop3763"
         offset="1"
         style="stop-color:#ffffff;stop-opacity:0;" />
    </linearGradient>
    <linearGradient
       id="linearGradient3777">
      <stop
         id="stop3779"
         offset="0"
         style="stop-color:#e0dd00;stop-opacity:1;" />
      <stop
         id="stop3781"
         offset="1"
         style="stop-color:#000000;stop-opacity:0;" />
    </linearGradient>
    <clipPath
       id="clipPath-538646568-2">
      <g
         transform="translate(0,-1004.3622)"
         id="g17-4">
        <path
           style="fill:#1890d0"
           inkscape:connector-curvature="0"
           d="m -24,13 c 0,1.105 -0.672,2 -1.5,2 -0.828,0 -1.5,-0.895 -1.5,-2 0,-1.105 0.672,-2 1.5,-2 0.828,0 1.5,0.895 1.5,2 z"
           transform="matrix(15.333333,0,0,11.5,414.99999,878.8622)"
           id="path19-33" />
      </g>
    </clipPath>
  </defs>
  <g
     id="g33" />
  <g
     id="g3121">
    <g
       inkscape:label="shadows"
       id="layer2">
      <rect
         ry="13.03658"
         rx="13.03658"
         y="1"
         x="1"
         height="46"
         width="46"
         id="rect3007"
         style="opacity:0.1;fill:#000000;fill-opacity:1;fill-rule:nonzero;stroke:none" />
      <rect
         style="opacity:0.1;fill:#000000;fill-opacity:1;fill-rule:nonzero;stroke:none"
         id="rect3011"
         width="47"
         height="47"
         x="0.5"
         y="0.5"
         rx="13.319984"
         ry="13.319984" />
      <rect
         style="opacity:0.1;fill:#000000;fill-opacity:1;fill-rule:nonzero;stroke:none"
         id="rect3013"
         width="46.5"
         height="46.5"
         x="0.75"
         y="0.75"
         rx="13.178282"
         ry="13.178282" />
    </g>
    <g
       style="display:inline"
       inkscape:label="background-color"
       id="layer1">
      <rect
         transform="matrix(0,-1,1,0,0,0)"
         ry="12.753176"
         rx="12.753176"
         y="1.5"
         x="-46.5"
         height="45"
         width="45"
         id="rect2988"
         style="fill:#f2f2f2;fill-opacity:1;fill-rule:nonzero;stroke:none" />
    </g>
  </g>
  <g
     transform="translate(-1.2866713e-4,2.8897145e-4)"
     id="g65-7">
    <g
       clip-path="url(#clipPath-538646568-2)"
       id="g67-4">
      <!-- color: #eeeeee -->
      <g
         id="g69-0">
        <path
           style="fill:#33678e;fill-opacity:1;fill-rule:nonzero;stroke:none"
           inkscape:connector-curvature="0"
           d="m 36.04,27.02 c -3.254,0.645 -3.477,-0.418 -3.477,-0.418 3.434,-4.906 4.867,-11.137 3.629,-12.664 -3.379,-4.156 -9.227,-2.191 -9.328,-2.137 l -0.031,0.004 c -0.641,-0.125 -1.359,-0.203 -2.168,-0.215 -1.469,-0.023 -2.586,0.371 -3.434,0.992 0,0 -10.43,-4.141 -9.949,5.207 0.102,1.988 2.957,15.05 6.363,11.11 1.246,-1.441 2.449,-2.66 2.449,-2.66 0.598,0.383 1.313,0.578 2.063,0.508 L 22.212,26.7 c -0.016,0.18 -0.008,0.355 0.027,0.563 -0.879,0.945 -0.621,1.109 -2.375,1.461 -1.773,0.352 -0.734,0.98 -0.055,1.145 0.828,0.199 2.738,0.48 4.03,-1.258 l -0.055,0.199 c 0.344,0.266 0.586,1.723 0.547,3.051 -0.039,1.324 -0.066,2.23 0.203,2.941 0.27,0.711 0.539,2.309 2.844,1.832 1.93,-0.395 2.926,-1.426 3.066,-3.148 0.098,-1.223 0.32,-1.043 0.336,-2.137 l 0.176,-0.516 c 0.207,-1.66 0.031,-2.195 1.219,-1.941 l 0.289,0.023 c 0.875,0.039 2.02,-0.137 2.688,-0.438 1.445,-0.645 2.305,-1.723 0.879,-1.441 m 0.012,-0.012"
           id="path71-6" />
        <path
           style="fill:none;stroke:#f9f9f9;stroke-width:0.141;stroke-linecap:round;stroke-linejoin:round;stroke-miterlimit:4;stroke-opacity:1"
           inkscape:connector-curvature="0"
           d="m 6.769,7.893 c -0.025,0.87 0.007,1.745 0.095,1.96 0.088,0.213 0.278,0.624 0.929,0.493 C 8.335,10.234 8.535,10.014 8.62,9.537 8.683,9.184 8.805,8.204 8.821,8.002"
           transform="scale(3.543307,3.543307)"
           stroke-miterlimit="4"
           id="path73-9" />
        <path
           style="fill:none;stroke:#f9f9f9;stroke-width:0.141;stroke-linecap:round;stroke-linejoin:round;stroke-miterlimit:4;stroke-opacity:1"
           inkscape:connector-curvature="0"
           d="m 5.99,3.53 c 0,0 -2.947,-1.16 -2.809,1.478 0.03,0.561 0.836,4.248 1.797,3.133 C 5.329,7.733 5.646,7.412 5.646,7.412"
           transform="scale(3.543307,3.543307)"
           stroke-miterlimit="4"
           id="path75-3" />
        <path
           style="fill:none;stroke:#f9f9f9;stroke-width:0.141;stroke-linecap:round;stroke-linejoin:round;stroke-miterlimit:4;stroke-opacity:1"
           inkscape:connector-curvature="0"
           d="M 7.581,3.318 C 7.476,3.349 9.218,2.705 10.208,3.923 10.559,4.353 10.153,6.109 9.185,7.496"
           transform="scale(3.543307,3.543307)"
           stroke-miterlimit="4"
           id="path77-8" />
        <path
           style="fill:none;stroke:#f9f9f9;stroke-width:0.141;stroke-linecap:round;stroke-linejoin:bevel;stroke-miterlimit:4;stroke-opacity:1"
           inkscape:connector-curvature="0"
           d="m 9.185,7.497 c 0,0 0.063,0.301 0.98,0.118 0.4,-0.078 0.161,0.226 -0.248,0.409 C 9.583,8.174 8.83,8.209 8.82,8.003 8.787,7.468 9.216,7.631 9.185,7.497 9.154,7.378 8.966,7.26 8.84,6.967 8.73,6.71 7.33,4.737 9.228,5.03 9.295,5.016 8.733,3.289 6.956,3.262 5.179,3.234 5.236,5.368 5.236,5.368"
           transform="scale(3.543307,3.543307)"
           stroke-miterlimit="4"
           id="path79-8" />
        <path
           style="fill:none;stroke:#f9f9f9;stroke-width:0.141;stroke-linecap:round;stroke-linejoin:round;stroke-miterlimit:4;stroke-opacity:1"
           inkscape:connector-curvature="0"
           d="M 6.272,7.68 C 6.024,7.949 6.098,7.992 5.602,8.091 5.101,8.19 5.398,8.369 5.59,8.414 5.823,8.47 6.362,8.551 6.726,8.058 6.837,7.908 6.725,7.67 6.574,7.609 6.499,7.58 6.402,7.543 6.275,7.68 m 0,0"
           transform="scale(3.543307,3.543307)"
           stroke-miterlimit="4"
           id="path81-2" />
        <path
           style="fill:none;stroke:#f9f9f9;stroke-width:0.141;stroke-linecap:round;stroke-linejoin:round;stroke-miterlimit:4;stroke-opacity:1"
           inkscape:connector-curvature="0"
           d="M 6.256,7.675 C 6.231,7.517 6.309,7.332 6.393,7.114 6.519,6.787 6.811,6.459 6.578,5.421 6.404,4.647 5.239,5.26 5.236,5.366 c 0,0.107 0.053,0.531 -0.02,1.031 -0.094,0.648 0.429,1.197 1.031,1.141"
           transform="scale(3.543307,3.543307)"
           stroke-miterlimit="4"
           id="path83-8" />
        <path
           style="fill:#ffffff;fill-opacity:1;fill-rule:nonzero;stroke:#f9f9f9;stroke-width:0.141;stroke-linecap:butt;stroke-linejoin:miter;stroke-miterlimit:4;stroke-opacity:1"
           inkscape:connector-curvature="0"
           d="M 5.978,5.348 C 5.97,5.384 6.043,5.479 6.14,5.492 6.236,5.505 6.316,5.429 6.323,5.394 6.329,5.358 6.256,5.319 6.16,5.306 6.064,5.293 5.983,5.312 5.978,5.348 m 0,0"
           transform="scale(3.543307,3.543307)"
           stroke-miterlimit="4"
           id="path85-2" />
        <path
           style="fill:#ffffff;fill-opacity:1;fill-rule:nonzero;stroke:#f9f9f9;stroke-width:0.071;stroke-linecap:butt;stroke-linejoin:miter;stroke-miterlimit:4;stroke-opacity:1"
           inkscape:connector-curvature="0"
           d="M 8.887,5.275 C 8.895,5.311 8.821,5.406 8.724,5.419 8.627,5.429 8.549,5.354 8.541,5.321 8.535,5.285 8.608,5.246 8.704,5.233 8.8,5.22 8.881,5.239 8.886,5.275 m 0.001,0"
           transform="scale(3.543307,3.543307)"
           stroke-miterlimit="4"
           id="path87-4" />
        <path
           style="fill:none;stroke:#f9f9f9;stroke-width:0.141;stroke-linecap:round;stroke-linejoin:round;stroke-miterlimit:4;stroke-opacity:1"
           inkscape:connector-curvature="0"
           d="M 9.228,5.03 C 9.241,5.311 9.164,5.503 9.153,5.802 9.14,6.236 9.368,6.735 9.024,7.233"
           transform="scale(3.543307,3.543307)"
           stroke-miterlimit="4"
           id="path89-7" />
      </g>
    </g>
  </g>
</svg>
